X: 1173
T: Sally's Jig (A73)
N: page A73
N: hexatonic
R: Jig
M: 6/8
L: 1/8
K: G
G2 A|"G"BdB "D7"AGA|"G"B2G "G/B" D3|"Am"E2 A "Am/E" ABA|"A7"E2A "D7" ABA|
"G" BdB "D7/A" AGA|"G/B" B2 G "Em"D3|"C"EAG "D7"FEF|"G"G3 ::
G2A|"G"Bdd "G/B" Bdg|"C"e2d "G/B" B2 D|"Am"E2 A "Am/E" ABA|"A7"E2 A "D7"ABA|
"G"Bdd "G/B"Bdg|"C"e2d "G/B"B2 D|"Am"EAG "D7"FEF|"G"G3:|
